Sources/FrostedUI/Resources/Icons.xcassets/download20.imageset/download-20.svg

<svg width="20" height="20" viewBox="0 0 20 20" fill="none" xmlns="http://www.w3.org/2000/svg" data-fui-icon="true">
  <path
    d="M16.041 16.959C16.4552 16.959 16.791 17.2948 16.791 17.709C16.7906 18.1229 16.455 18.459 16.041 18.459H3.95801C3.54414 18.4589 3.20838 18.1228 3.20801 17.709C3.20801 17.2949 3.54391 16.9591 3.95801 16.959H16.041ZM10 1.54199C10.4141 1.54217 10.75 1.87789 10.75 2.29199V12.7725L13.0107 10.5117C13.3036 10.2189 13.7784 10.219 14.0713 10.5117C14.3641 10.8046 14.3642 11.2794 14.0713 11.5723L11.1191 14.5244C10.5008 15.1424 9.4981 15.1426 8.87988 14.5244L5.92773 11.5723C5.63494 11.2795 5.63515 10.8046 5.92773 10.5117C6.22063 10.2188 6.69539 10.2188 6.98828 10.5117L9.25 12.7734V2.29199C9.25 1.87786 9.5859 1.54212 10 1.54199Z"
    fill="currentColor"
  />
</svg>

<svg xmlns="http://www.w3.org/2000/svg" width="20" height="20" fill="none" data-fui-icon="true" viewBox="0 0 20 20"><path fill="currentColor" d="M16.041 16.959a.75.75 0 0 1 0 1.5H3.958a.75.75 0 0 1 0-1.5zM10 1.542a.75.75 0 0 1 .75.75v10.48l2.26-2.26a.75.75 0 0 1 1.061 1.06l-2.952 2.952a1.584 1.584 0 0 1-2.24 0l-2.951-2.952a.75.75 0 0 1 1.06-1.06l2.262 2.261V2.292a.75.75 0 0 1 .75-.75"/></svg>
